src/assets/images/computer.svg

<svg fill="none" height="73" viewBox="0 0 105 73" width="105" xmlns="http://www.w3.org/2000/svg"><g fill="#f39894"><path d="m52.4904 0h41.7169c2.7671 0 3.9922 1.22796 3.9922 4.00145v52.18825c0 1.6514 0 1.6514-1.711 1.7149-3.8231.1058-7.6674.0635-11.5117.1905-6.6747.2117-13.3706.1482-20.0453.3176-7.8153.1906-15.6095.2964-23.4248.4446-7.5197.1482-15.0604.3176-22.58.4234-3.6331.0636-7.245.1059-10.8781.1906-.95051.0212-1.26735-.2752-1.26735-1.2491.02112-18.2077.02112-36.4154.02112-54.62301 0-2.2442 1.37297-3.59919 3.65423-3.59919zm.0422 6.92314c-12.4623 0-24.9246 0-37.3657 0-1.4786 0-1.4786 0-1.4786 1.41851v42.74565c0 1.4185 0 1.4185 1.373 1.4185h74.8581c1.373 0 1.373 0 1.373-1.4185 0-14.2062 0-28.4336 0-42.63979 0-1.52437 0-1.52437-1.5842-1.52437-12.3989 0-24.7767 0-37.1756 0z"/><path d="m52.4887 72.9787c-12.6313 0-25.2625-.0211-37.9149.0212-2.9994 0-5.68197-.8045-8.13219-2.4559-1.73204-1.1644-3.42184-2.3501-5.19613-3.451-.908271-.5716-1.288476-1.2068-1.24623095-2.3077.10561295-2.3712-.25347005-2.1172 2.09113095-2.1172 11.30052 0 22.60112 0 33.90162-.0211.866 0 1.4152.1058 1.6476 1.1221.3379 1.4396 1.7954 2.2653 3.6542 2.2653 3.7598.0212 7.5407 0 11.3005 0h10.8781c2.3235 0 3.2106-.614 4.0133-2.7735.1689-.4234.4013-.6351.866-.6139.2535.0211.4858 0 .7393 0h34.324c1.542 0 1.415.0211 1.563 1.4608.148 1.5667-.38 2.5194-1.753 3.3028-2.471 1.3973-4.6259 3.3451-7.2662 4.4884-1.6264.7198-3.3373 1.0374-5.1328 1.0374-12.7791.0423-25.5582.0423-38.3373.0423z"/></g></svg>

<svg width="105" height="73" viewBox="0 0 105 73" fill="none" xmlns="http://www.w3.org/2000/svg">
<g clipPath="url(#clip0_2302_2483)">
<path d="M52.4904 0C66.389 0 80.2876 0 94.2073 0C96.9744 0 98.1995 1.22796 98.1995 4.00145C98.1995 21.4046 98.1995 38.7865 98.1995 56.1897C98.1995 57.8411 98.1995 57.8411 96.4885 57.9046C92.6654 58.0104 88.8211 57.9681 84.9768 58.0951C78.3021 58.3068 71.6062 58.2433 64.9315 58.4127C57.1162 58.6033 49.322 58.7091 41.5067 58.8573C33.987 59.0055 26.4463 59.1749 18.9267 59.2807C15.2936 59.3443 11.6817 59.3866 8.0486 59.4713C7.09809 59.4925 6.78125 59.1961 6.78125 58.2222C6.80237 40.0145 6.80237 21.8068 6.80237 3.59919C6.80237 1.35499 8.17534 0 10.4566 0C24.4608 0 38.4861 0 52.4904 0ZM52.5326 6.92314C40.0703 6.92314 27.608 6.92314 15.1669 6.92314C13.6883 6.92314 13.6883 6.92314 13.6883 8.34165C13.6883 22.5902 13.6883 36.8387 13.6883 51.0873C13.6883 52.5058 13.6883 52.5058 15.0613 52.5058C40.007 52.5058 64.9526 52.5058 89.9194 52.5058C91.2924 52.5058 91.2924 52.5058 91.2924 51.0873C91.2924 36.8811 91.2924 22.6537 91.2924 8.44751C91.2924 6.92314 91.2924 6.92314 89.7082 6.92314C77.3093 6.92314 64.9315 6.92314 52.5326 6.92314Z" fill="#F39894"/>
<path d="M52.4887 72.9787C39.8574 72.9787 27.2262 72.9576 14.5738 72.9999C11.5744 72.9999 8.89183 72.1954 6.44161 70.544C4.70957 69.3796 3.01977 68.1939 1.24548 67.093C0.337209 66.5214 -0.042996 65.8862 -0.000750953 64.7853C0.104862 62.4141 -0.254221 62.6681 2.09038 62.6681C13.3909 62.6681 24.6915 62.6681 35.992 62.647C36.858 62.647 37.4072 62.7528 37.6396 63.7691C37.9775 65.2087 39.435 66.0344 41.2938 66.0344C45.0536 66.0556 48.8345 66.0344 52.5943 66.0344C56.2274 66.0344 59.8393 66.0344 63.4724 66.0344C65.7959 66.0344 66.683 65.4204 67.4857 63.2609C67.6546 62.8375 67.887 62.6258 68.3517 62.647C68.6052 62.6681 68.8375 62.647 69.091 62.647C80.5394 62.647 91.9667 62.647 103.415 62.647C104.957 62.647 104.83 62.6681 104.978 64.1078C105.126 65.6745 104.598 66.6272 103.225 67.4106C100.754 68.8079 98.5991 70.7557 95.9588 71.899C94.3324 72.6188 92.6215 72.9364 90.826 72.9364C78.0469 72.9787 65.2678 72.9787 52.4887 72.9787Z" fill="#F39894"/>
</g>
<defs>
<clipPath id="clip0_2302_2483">
<rect width="105" height="73" fill="white"/>
</clipPath>
</defs>
</svg>
